;START_OF_HEADER
;HEADER_VERSION:0.1
;FLAVOR:Griffin
;GENERATOR.NAME:Cura_SteamEngine
;GENERATOR.VERSION:4.8.0
;GENERATOR.BUILD_DATE:2020-11-10
;TARGET_MACHINE.NAME:Ultimaker S5
;EXTRUDER_TRAIN.0.INITIAL_TEMPERATURE:230
;EXTRUDER_TRAIN.0.MATERIAL.VOLUME_USED:3687
;EXTRUDER_TRAIN.0.MATERIAL.GUID:506c9f0d-e3aa-4bd4-b2d2-23e2425b1aa9
;EXTRUDER_TRAIN.0.NOZZLE.DIAMETER:0.4
;EXTRUDER_TRAIN.0.NOZZLE.NAME:AA 0.4
;BUILD_PLATE.TYPE:glass
;BUILD_PLATE.INITIAL_TEMPERATURE:60
;BUILD_VOLUME.TEMPERATURE:28
;PRINT.TIME:1058
;PRINT.GROUPS:1
;PRINT.SIZE.MIN.X:155.175
;PRINT.SIZE.MIN.Y:110.175
;PRINT.SIZE.MIN.Z:0.2
;PRINT.SIZE.MAX.X:174.825
;PRINT.SIZE.MAX.Y:129.825
;PRINT.SIZE.MAX.Z:20
;END_OF_HEADER
;Generated with Cura_SteamEngine 4.8.0
T0
M82 ;absolute extrusion mode

G92 E0
M109 S230
G280 S1
G0 Z20.001
G1 F1500 E-6.5
;LAYER_COUNT:100
;LAYER:0
M107
M204 S625
M205 X10 Y10
G1 F600 Z2.2
;MESH:Part Studio 1 - Part 1.stl
G0 F2571.4 X174.04 Y129.04 Z2.2
M204 S500
M205 X5 Y5
;TYPE:WALL-INNER
G1 F600 Z0.2
G1 F1500 E0
G1 F1200 X155.96 Y129.04 E0.20406
G1 X155.96 Y110.96 E0.40811
G1 X174.04 Y110.96 E0.61217
G1 X174.04 Y129.04 E0.81623
M204 S625
M205 X10 Y10
G0 F2571.4 X174.4 Y129.4
M204 S500
M205 X5 Y5
G1 F1200 X155.6 Y129.4 E1.02841
G1 X155.6 Y110.6 E1.24059
G1 X174.4 Y110.6 E1.45278
G1 X174.4 Y129.4 E1.66496
M204 S625
M205 X10 Y10
G0 F2571.4 X174.79 Y129.79
M204 S500
M205 X5 Y5
;TYPE:WALL-OUTER
G1 F1200 X155.21 Y129.79 E1.92278
G1 X155.21 Y110.21 E2.18059
G1 X174.79 Y110.21 E2.43841
G1 X174.79 Y129.79 E2.69623
M204 S625
M205 X10 Y10
G0 F2571.4 X174.59 Y129.79
G0 X174.328 Y129.328
G0 X173.66 Y128.66
M204 S500
M205 X5 Y5
;TYPE:SKIN
G1 F1200 X156.34 Y128.66 E2.92429
G1 X156.34 Y111.34 E3.15235
G1 X173.66 Y111.34 E3.38041
G1 X173.66 Y128.66 E3.60847
M204 S625
M205 X10 Y10
G0 F2571.4 X173.514 Y111.741
M204 S500
M205 X5 Y5
G1 F1200 X173.258 Y111.485 E3.61323
M204 S625
M205 X10 Y10
G0 F2571.4 X172.664 Y111.485
M204 S500
M205 X5 Y5
G1 F1200 X173.514 Y112.335 E3.62906
M204 S625
M205 X10 Y10
G0 F2571.4 X173.514 Y112.929
M204 S500
M205 X5 Y5
G1 F1200 X172.07 Y111.485 E3.65595
M204 S625
M205 X10 Y10
G0 F2571.4 X171.476 Y111.485
M204 S500
M205 X5 Y5
G1 F1200 X173.514 Y113.523 E3.6939
M204 S625
M205 X10 Y10
G0 F2571.4 X173.514 Y114.117
M204 S500
M205 X5 Y5
G1 F1200 X170.882 Y111.485 E3.74291
M204 S625
M205 X10 Y10
G0 F2571.4 X170.288 Y111.485
M204 S500
M205 X5 Y5
G1 F1200 X173.514 Y114.711 E3.80299
M204 S625
M205 X10 Y10
G0 F2571.4 X173.514 Y115.305
M204 S500
M205 X5 Y5
G1 F1200 X169.694 Y111.485 E3.87412
M204 S625
M205 X10 Y10
G0 F2571.4 X169.1 Y111.485
M204 S500
M205 X5 Y5
G1 F1200 X173.514 Y115.899 E3.95632
M204 S625
M205 X10 Y10
G0 F2571.4 X173.514 Y116.493
M204 S500
M205 X5 Y5
G1 F1200 X168.506 Y111.485 E4.04957
M204 S625
M205 X10 Y10
G0 F2571.4 X167.912 Y111.485
M204 S500
M205 X5 Y5
G1 F1200 X173.514 Y117.086 E4.15388
M204 S625
M205 X10 Y10
G0 F2571.4 X173.514 Y117.68
M204 S500
M205 X5 Y5
G1 F1200 X167.318 Y111.485 E4.26925
M204 S625
M205 X10 Y10
G0 F2571.4 X166.724 Y111.485
M204 S500
M205 X5 Y5
G1 F1200 X173.514 Y118.274 E4.39568
M204 S625
M205 X10 Y10
G0 F2571.4 X173.514 Y118.868
M204 S500
M205 X5 Y5
G1 F1200 X166.13 Y111.485 E4.53317
M204 S625
M205 X10 Y10
G0 F2571.4 X165.536 Y111.485
M204 S500
M205 X5 Y5
G1 F1200 X173.514 Y119.462 E4.68173
M204 S625
M205 X10 Y10
G0 F2571.4 X173.514 Y120.056
M204 S500
M205 X5 Y5
G1 F1200 X164.942 Y111.485 E4.84134
M204 S625
M205 X10 Y10
G0 F2571.4 X164.348 Y111.485
M204 S500
M205 X5 Y5
G1 F1200 X173.514 Y120.65 E5.01202
M204 S625
M205 X10 Y10
G0 F2571.4 X173.514 Y121.244
M204 S500
M205 X5 Y5
G1 F1200 X163.754 Y111.485 E5.19375
M204 S625
M205 X10 Y10
G0 F2571.4 X163.16 Y111.485
M204 S500
M205 X5 Y5
G1 F1200 X173.514 Y121.838 E5.38655
M204 S625
M205 X10 Y10
G0 F2571.4 X173.514 Y122.432
M204 S500
M205 X5 Y5
G1 F1200 X162.566 Y111.485 E5.59041
M204 S625
M205 X10 Y10
G0 F2571.4 X161.972 Y111.485
M204 S500
M205 X5 Y5
G1 F1200 X173.514 Y123.026 E5.80533
M204 S625
M205 X10 Y10
G0 F2571.4 X173.514 Y123.62
M204 S500
M205 X5 Y5
G1 F1200 X161.378 Y111.485 E6.03131
M204 S625
M205 X10 Y10
G0 F2571.4 X160.784 Y111.485
M204 S500
M205 X5 Y5
G1 F1200 X173.514 Y124.214 E6.26835
M204 S625
M205 X10 Y10
G0 F2571.4 X173.514 Y124.808
M204 S500
M205 X5 Y5
G1 F1200 X160.19 Y111.485 E6.51646
M204 S625
M205 X10 Y10
G0 F2571.4 X159.596 Y111.485
M204 S500
M205 X5 Y5
G1 F1200 X173.514 Y125.402 E6.77562
M204 S625
M205 X10 Y10
G0 F2571.4 X173.514 Y125.996
M204 S500
M205 X5 Y5
G1 F1200 X159.002 Y111.485 E7.04585
M204 S625
M205 X10 Y10
G0 F2571.4 X158.408 Y111.485
M204 S500
M205 X5 Y5
G1 F1200 X173.514 Y126.59 E7.32713
M204 S625
M205 X10 Y10
G0 F2571.4 X173.514 Y127.184
M204 S500
M205 X5 Y5
G1 F1200 X157.814 Y111.485 E7.61948
M204 S625
M205 X10 Y10
G0 F2571.4 X157.22 Y111.485
M204 S500
M205 X5 Y5
G1 F1200 X173.514 Y127.778 E7.92289
M204 S625
M205 X10 Y10
G0 F2571.4 X173.514 Y128.372
M204 S500
M205 X5 Y5
G1 F1200 X156.626 Y111.485 E8.23736
M204 S625
M205 X10 Y10
G0 F2571.4 X156.484 Y111.936
M204 S500
M205 X5 Y5
G1 F1200 X173.062 Y128.515 E8.54608
M204 S625
M205 X10 Y10
G0 F2571.4 X172.469 Y128.515
M204 S500
M205 X5 Y5
G1 F1200 X156.484 Y112.53 E8.84374
M204 S625
M205 X10 Y10
G0 F2571.4 X156.484 Y113.124
M204 S500
M205 X5 Y5
G1 F1200 X171.875 Y128.515 E9.13035
M204 S625
M205 X10 Y10
G0 F2571.4 X171.281 Y128.515
M204 S500
M205 X5 Y5
G1 F1200 X156.484 Y113.718 E9.40589
M204 S625
M205 X10 Y10
G0 F2571.4 X156.484 Y114.312
M204 S500
M205 X5 Y5
G1 F1200 X170.687 Y128.515 E9.67037
M204 S625
M205 X10 Y10
G0 F2571.4 X170.093 Y128.515
M204 S500
M205 X5 Y5
G1 F1200 X156.484 Y114.906 E9.92379
M204 S625
M205 X10 Y10
G0 F2571.4 X156.484 Y115.5
M204 S500
M205 X5 Y5
G1 F1200 X169.499 Y128.515 E10.16615
M204 S625
M205 X10 Y10
G0 F2571.4 X168.905 Y128.515
M204 S500
M205 X5 Y5
G1 F1200 X156.484 Y116.094 E10.39745
M204 S625
M205 X10 Y10
G0 F2571.4 X156.484 Y116.688
M204 S500
M205 X5 Y5
G1 F1200 X168.311 Y128.515 E10.61768
M204 S625
M205 X10 Y10
G0 F2571.4 X167.717 Y128.515
M204 S500
M205 X5 Y5
G1 F1200 X156.484 Y117.282 E10.82686
M204 S625
M205 X10 Y10
G0 F2571.4 X156.484 Y117.876
M204 S500
M205 X5 Y5
G1 F1200 X167.123 Y128.515 E11.02497
M204 S625
M205 X10 Y10
G0 F2571.4 X166.529 Y128.515
M204 S500
M205 X5 Y5
G1 F1200 X156.484 Y118.47 E11.21203
M204 S625
M205 X10 Y10
G0 F2571.4 X156.484 Y119.064
M204 S500
M205 X5 Y5
G1 F1200 X165.935 Y128.515 E11.38802
M204 S625
M205 X10 Y10
G0 F2571.4 X165.341 Y128.515
M204 S500
M205 X5 Y5
G1 F1200 X156.484 Y119.658 E11.55295
M204 S625
M205 X10 Y10
G0 F2571.4 X156.484 Y120.251
M204 S500
M205 X5 Y5
G1 F1200 X164.747 Y128.515 E11.70683
M204 S625
M205 X10 Y10
G0 F2571.4 X164.153 Y128.515
M204 S500
M205 X5 Y5
G1 F1200 X156.484 Y120.845 E11.84964
M204 S625
M205 X10 Y10
G0 F2571.4 X156.484 Y121.439
M204 S500
M205 X5 Y5
G1 F1200 X163.559 Y128.515 E11.9814
M204 S625
M205 X10 Y10
G0 F2571.4 X162.965 Y128.515
M204 S500
M205 X5 Y5
G1 F1200 X156.484 Y122.033 E12.1021
M204 S625
M205 X10 Y10
G0 F2571.4 X156.484 Y122.627
M204 S500
M205 X5 Y5
G1 F1200 X162.371 Y128.515 E12.21173
M204 S625
M205 X10 Y10
G0 F2571.4 X161.777 Y128.515
M204 S500
M205 X5 Y5
G1 F1200 X156.484 Y123.221 E12.3103
M204 S625
M205 X10 Y10
G0 F2571.4 X156.484 Y123.815
M204 S500
M205 X5 Y5
G1 F1200 X161.183 Y128.515 E12.39782
M204 S625
M205 X10 Y10
G0 F2571.4 X160.589 Y128.515
M204 S500
M205 X5 Y5
G1 F1200 X156.484 Y124.409 E12.47427
M204 S625
M205 X10 Y10
G0 F2571.4 X156.484 Y125.003
M204 S500
M205 X5 Y5
G1 F1200 X159.995 Y128.515 E12.53966
M204 S625
M205 X10 Y10
G0 F2571.4 X159.401 Y128.515
M204 S500
M205 X5 Y5
G1 F1200 X156.484 Y125.597 E12.59398
M204 S625
M205 X10 Y10
G0 F2571.4 X156.484 Y126.191
M204 S500
M205 X5 Y5
G1 F1200 X158.807 Y128.515 E12.63725
M204 S625
M205 X10 Y10
G0 F2571.4 X158.213 Y128.515
M204 S500
M205 X5 Y5
G1 F1200 X156.484 Y126.785 E12.66946
M204 S625
M205 X10 Y10
G0 F2571.4 X156.484 Y127.379
M204 S500
M205 X5 Y5
G1 F1200 X157.619 Y128.515 E12.6906
M204 S625
M205 X10 Y10
G0 F2571.4 X157.025 Y128.515
M204 S500
M205 X5 Y5
G1 F1200 X156.484 Y127.973 E12.70068
M204 S625
M205 X10 Y10
;MESH:NONMESH
G0 F600 X156.484 Y127.973 Z0.4
G0 F2571.4 X174.2 Y129.2
;TIME_ELAPSED:61.087450
;LAYER:1
M106 S12.8
M204 S1250
M205 X7.5 Y7.5
;TYPE:WALL-INNER
;MESH:Part Studio 1 - Part 1.stl
G1 F2250 X155.8 Y129.2 E12.87374
G1 X155.8 Y110.8 E13.0468
G1 X174.2 Y110.8 E13.21986
G1 X174.2 Y129.2 E13.39291
M204 S2812
M205 X30 Y30
G0 F5785.7 X174.5 Y129.5
M204 S1250
M205 X7.5 Y7.5
G1 F2250 X155.5 Y129.5 E13.57161
G1 X155.5 Y110.5 E13.75031
G1 X174.5 Y110.5 E13.92901
G1 X174.5 Y129.5 E14.10771
M204 S2812
M205 X30 Y30
G0 F5785.7 X174.825 Y129.825
M204 S1250
M205 X5 Y5
;TYPE:WALL-OUTER
G1 F2100 X155.175 Y129.825 E14.32333
G1 X155.175 Y110.175 E14.53895
G1 X174.825 Y110.175 E14.75456
G1 X174.825 Y129.825 E14.97018
M204 S2812
M205 X30 Y30
G0 F5785.7 X174.625 Y129.825
G0 X174.44 Y129.44
G0 X173.885 Y128.885
M204 S500
M205 X5 Y5
;TYPE:SKIN
G1 F1800 X156.115 Y128.885 E15.16517
G1 X156.115 Y111.115 E15.36015
G1 X173.885 Y111.115 E15.55514
G1 X173.885 Y128.885 E15.75013
M204 S2812
M205 X30 Y30
G0 F5785.7 X173.774 Y128.655
M204 S500
M205 X5 Y5
G1 F1800 X173.654 Y128.775 E15.75199
M204 S2812
M205 X30 Y30
G0 F5785.7 X173.159 Y128.775
M204 S500
M205 X5 Y5
G1 F1800 X173.774 Y128.16 E15.76153
M204 S2812
M205 X30 Y30
G0 F5785.7 X173.774 Y127.665
M204 S500
M205 X5 Y5
G1 F1800 X172.664 Y128.775 E15.77876
M204 S2812
M205 X30 Y30
G0 F5785.7 X172.169 Y128.775
M204 S500
M205 X5 Y5
G1 F1800 X173.774 Y127.17 E15.80366
M204 S2812
M205 X30 Y30
G0 F5785.7 X173.774 Y126.675
M204 S500
M205 X5 Y5
G1 F1800 X171.674 Y128.775 E15.83625
M204 S2812
M205 X30 Y30
G0 F5785.7 X171.179 Y128.775
M204 S500
M205 X5 Y5
G1 F1800 X173.774 Y126.18 E15.87652
M204 S2812
M205 X30 Y30
G0 F5785.7 X173.774 Y125.685
M204 S500
M205 X5 Y5
G1 F1800 X170.684 Y128.775 E15.92447
M204 S2812
M205 X30 Y30
G0 F5785.7 X170.189 Y128.775
M204 S500
M205 X5 Y5
G1 F1800 X173.774 Y125.19 E15.9801
M204 S2812
M205 X30 Y30
G0 F5785.7 X173.774 Y124.695
M204 S500
M205 X5 Y5
G1 F1800 X169.694 Y128.775 E16.04342
M204 S2812
M205 X30 Y30
G0 F5785.7 X169.199 Y128.775
M204 S500
M205 X5 Y5
G1 F1800 X173.774 Y124.2 E16.11441
M204 S2812
M205 X30 Y30
G0 F5785.7 X173.774 Y123.705
M204 S500
M205 X5 Y5
G1 F1800 X168.704 Y128.775 E16.19309
M204 S2812
M205 X30 Y30
G0 F5785.7 X168.209 Y128.775
M204 S500
M205 X5 Y5
G1 F1800 X173.774 Y123.21 E16.27944
M204 S2812
M205 X30 Y30
G0 F5785.7 X173.774 Y122.715
M204 S500
M205 X5 Y5
G1 F1800 X167.714 Y128.775 E16.37348
M204 S2812
M205 X30 Y30
G0 F5785.7 X167.219 Y128.775
M204 S500
M205 X5 Y5
G1 F1800 X173.774 Y122.22 E16.4752
M204 S2812
M205 X30 Y30
G0 F5785.7 X173.774 Y121.725
M204 S500
M205 X5 Y5
G1 F1800 X166.724 Y128.775 E16.5846
M204 S2812
M205 X30 Y30
G0 F5785.7 X166.229 Y128.775
M204 S500
M205 X5 Y5
G1 F1800 X173.774 Y121.23 E16.70169
M204 S2812
M205 X30 Y30
G0 F5785.7 X173.774 Y120.735
M204 S500
M205 X5 Y5
G1 F1800 X165.734 Y128.775 E16.82645
M204 S2812
M205 X30 Y30
G0 F5785.7 X165.239 Y128.775
M204 S500
M205 X5 Y5
G1 F1800 X173.774 Y120.24 E16.95889
M204 S2812
M205 X30 Y30
G0 F5785.7 X173.774 Y119.745
M204 S500
M205 X5 Y5
G1 F1800 X164.744 Y128.775 E17.09902
M204 S2812
M205 X30 Y30
G0 F5785.7 X164.249 Y128.775
M204 S500
M205 X5 Y5
G1 F1800 X173.774 Y119.25 E17.24683
M204 S2812
M205 X30 Y30
G0 F5785.7 X173.774 Y118.755
M204 S500
M205 X5 Y5
G1 F1800 X163.754 Y128.775 E17.40232
M204 S2812
M205 X30 Y30
G0 F5785.7 X163.259 Y128.775
M204 S500
M205 X5 Y5
G1 F1800 X173.774 Y118.26 E17.56549
M204 S2812
M205 X30 Y30
G0 F5785.7 X173.774 Y117.765
M204 S500
M205 X5 Y5
G1 F1800 X162.764 Y128.775 E17.73634
M204 S2812
M205 X30 Y30
G0 F5785.7 X162.269 Y128.775
M204 S500
M205 X5 Y5
G1 F1800 X173.774 Y117.27 E17.91488
M204 S2812
M205 X30 Y30
G0 F5785.7 X173.774 Y116.775
M204 S500
M205 X5 Y5
G1 F1800 X161.774 Y128.775 E18.10109
M204 S2812
M205 X30 Y30
G0 F5785.7 X161.279 Y128.775
M204 S500
M205 X5 Y5
G1 F1800 X173.774 Y116.28 E18.29499
M204 S2812
M205 X30 Y30
G0 F5785.7 X173.774 Y115.785
M204 S500
M205 X5 Y5
G1 F1800 X160.784 Y128.775 E18.49657
M204 S2812
M205 X30 Y30
G0 F5785.7 X160.289 Y128.775
M204 S500
M205 X5 Y5
G1 F1800 X173.774 Y115.29 E18.70582
M204 S2812
M205 X30 Y30
G0 F5785.7 X173.774 Y114.795
M204 S500
M205 X5 Y5
G1 F1800 X159.794 Y128.775 E18.92276
M204 S2812
M205 X30 Y30
G0 F5785.7 X159.299 Y128.775
M204 S500
M205 X5 Y5
G1 F1800 X173.774 Y114.3 E19.14739
M204 S2812
M205 X30 Y30
G0 F5785.7 X173.774 Y113.806
M204 S500
M205 X5 Y5
G1 F1800 X158.804 Y128.775 E19.37968
M204 S2812
M205 X30 Y30
G0 F5785.7 X158.309 Y128.775
M204 S500
M205 X5 Y5
G1 F1800 X173.774 Y113.311 E19.61966
M204 S2812
M205 X30 Y30
G0 F5785.7 X173.774 Y112.816
M204 S500
M205 X5 Y5
G1 F1800 X157.814 Y128.775 E19.86732
M204 S2812
M205 X30 Y30
G0 F5785.7 X157.319 Y128.775
M204 S500
M205 X5 Y5
G1 F1800 X173.774 Y112.321 E20.12266
M204 S2812
M205 X30 Y30
G0 F5785.7 X173.774 Y111.826
M204 S500
M205 X5 Y5
G1 F1800 X156.824 Y128.775 E20.38568
M204 S2812
M205 X30 Y30
G0 F5785.7 X156.329 Y128.775
M204 S500
M205 X5 Y5
G1 F1800 X173.774 Y111.331 E20.65638
M204 S2812
M205 X30 Y30
G0 F5785.7 X173.385 Y111.225
M204 S500
M205 X5 Y5
G1 F1800 X156.224 Y128.385 E20.92268
M204 S2812
M205 X30 Y30
G0 F5785.7 X156.224 Y127.89
M204 S500
M205 X5 Y5
G1 F1800 X172.89 Y111.225 E21.18129
M204 S2812
M205 X30 Y30
G0 F5785.7 X172.395 Y111.225
M204 S500
M205 X5 Y5
G1 F1800 X156.224 Y127.395 E21.43222
M204 S2812
M205 X30 Y30
G0 F5785.7 X156.224 Y126.9
M204 S500
M205 X5 Y5
G1 F1800 X171.9 Y111.225 E21.67547
M204 S2812
M205 X30 Y30
G0 F5785.7 X171.405 Y111.225
M204 S500
M205 X5 Y5
G1 F1800 X156.224 Y126.405 E21.91104
M204 S2812
M205 X30 Y30
G0 F5785.7 X156.224 Y125.91
M204 S500
M205 X5 Y5
G1 F1800 X170.91 Y111.225 E22.13893
M204 S2812
M205 X30 Y30
G0 F5785.7 X170.415 Y111.225
M204 S500
M205 X5 Y5
G1 F1800 X156.224 Y125.415 E22.35914
M204 S2812
M205 X30 Y30
G0 F5785.7 X156.224 Y124.921
M204 S500
M205 X5 Y5
G1 F1800 X169.92 Y111.225 E22.57167
M204 S2812
M205 X30 Y30
G0 F5785.7 X169.425 Y111.225
M204 S500
M205 X5 Y5
G1 F1800 X156.224 Y124.426 E22.77652
M204 S2812
M205 X30 Y30
G0 F5785.7 X156.224 Y123.931
M204 S500
M205 X5 Y5
G1 F1800 X168.93 Y111.225 E22.97369
M204 S2812
M205 X30 Y30
G0 F5785.7 X168.435 Y111.225
M204 S500
M205 X5 Y5
G1 F1800 X156.224 Y123.436 E23.16318
M204 S2812
M205 X30 Y30
G0 F5785.7 X156.224 Y122.941
M204 S500
M205 X5 Y5
G1 F1800 X167.94 Y111.225 E23.34499
M204 S2812
M205 X30 Y30
G0 F5785.7 X167.445 Y111.225
M204 S500
M205 X5 Y5
G1 F1800 X156.224 Y122.446 E23.51912
M204 S2812
M205 X30 Y30
G0 F5785.7 X156.224 Y121.951
M204 S500
M205 X5 Y5
G1 F1800 X166.95 Y111.225 E23.68556
M204 S2812
M205 X30 Y30
G0 F5785.7 X166.455 Y111.225
M204 S500
M205 X5 Y5
G1 F1800 X156.224 Y121.456 E23.84433
M204 S2812
M205 X30 Y30
G0 F5785.7 X156.224 Y120.961
M204 S500
M205 X5 Y5
G1 F1800 X165.96 Y111.225 E23.99541
M204 S2812
M205 X30 Y30
G0 F5785.7 X165.465 Y111.225
M204 S500
M205 X5 Y5
G1 F1800 X156.224 Y120.466 E24.13881
M204 S2812
M205 X30 Y30
G0 F5785.7 X156.224 Y119.971
M204 S500
M205 X5 Y5
G1 F1800 X164.97 Y111.225 E24.27453
M204 S2812
M205 X30 Y30
G0 F5785.7 X164.475 Y111.225
M204 S500
M205 X5 Y5
G1 F1800 X156.224 Y119.476 E24.40257
M204 S2812
M205 X30 Y30
G0 F5785.7 X156.224 Y118.981
M204 S500
M205 X5 Y5
G1 F1800 X163.98 Y111.225 E24.52293
M204 S2812
M205 X30 Y30
G0 F5785.7 X163.485 Y111.225
M204 S500
M205 X5 Y5
G1 F1800 X156.224 Y118.486 E24.6356
M204 S2812
M205 X30 Y30
G0 F5785.7 X156.224 Y117.991
M204 S500
M205 X5 Y5
G1 F1800 X162.99 Y111.225 E24.74059
M204 S2812
M205 X30 Y30
G0 F5785.7 X162.495 Y111.225
M204 S500
M205 X5 Y5
G1 F1800 X156.224 Y117.496 E24.83791
M204 S2812
M205 X30 Y30
G0 F5785.7 X156.224 Y117.001
M204 S500
M205 X5 Y5
G1 F1800 X162 Y111.225 E24.92754
M204 S2812
M205 X30 Y30
G0 F5785.7 X161.506 Y111.225
M204 S500
M205 X5 Y5
G1 F1800 X156.224 Y116.506 E25.0095
M204 S2812
M205 X30 Y30
G0 F5785.7 X156.224 Y116.011
M204 S500
M205 X5 Y5
G1 F1800 X161.011 Y111.225 E25.08377
M204 S2812
M205 X30 Y30
G0 F5785.7 X160.516 Y111.225
M204 S500
M205 X5 Y5
G1 F1800 X156.224 Y115.516 E25.15037
M204 S2812
M205 X30 Y30
G0 F5785.7 X156.224 Y115.021
M204 S500
M205 X5 Y5
